build/img-landing/svg/cap5.svg

<svg width="65" height="51" viewBox="0 0 65 51" fill="none" xmlns="http://www.w3.org/2000/svg">
<path d="M44.0285 12.436V7.71456C44.0285 3.67125 40.7402 0.370071 36.6841 0.370071H7.34449C3.28839 0.382867 0 3.67125 0 7.72735V28.6988C0 32.7421 3.28839 36.0433 7.34449 36.0433V45.563L19.2441 36.0433H24.2215C27.1004 43.1703 35.1102 48.0964 44.0285 48.0964C48.0846 48.0964 52 47.1112 55.4035 45.2303L60.8032 50.6299V40.9439C63.5541 37.8346 65 34.1496 65 30.2726C65 20.4331 55.5955 12.436 44.0285 12.436ZM23.4537 33.9449H18.502V33.9321L9.43012 41.187V33.9321H7.34449C4.45276 33.9321 2.09843 31.5777 2.09843 28.686V7.72735C2.09843 4.83562 4.45276 2.48129 7.34449 2.48129H36.6968C39.5886 2.48129 41.9429 4.83562 41.9429 7.72735V12.5384V28.6988C41.9429 31.5905 39.5886 33.9449 36.6968 33.9449H23.4537ZM58.9862 39.8179L58.7047 40.125V45.5502L55.7362 42.5817L55.0325 43.0039C51.7953 44.9488 47.9823 45.9852 44.0157 45.9852C36.2618 45.9852 29.2884 41.9547 26.4734 36.0305H36.6841C39.6014 36.0305 42.122 34.3159 43.2992 31.8336H57.6427V29.7352H43.9518C44.003 29.3898 44.0413 29.0443 44.0413 28.686V23.4399H57.6683V21.3415H44.0285V14.5216C54.4311 14.5216 62.9016 21.5718 62.9016 30.247C62.9016 33.7401 61.5453 37.0413 58.9862 39.8179Z" fill="#E30613"/>
</svg>

<svg width="65" height="51" viewBox="0 0 65 51" fill="none" xmlns="http://www.w3.org/2000/svg"><path d="M44.029 12.436V7.715C44.029 3.67 40.74.37 36.684.37H7.344C3.288.383 0 3.671 0 7.727V28.7c0 4.043 3.288 7.344 7.344 7.344v9.52l11.9-9.52h4.977c2.88 7.127 10.89 12.053 19.808 12.053 4.056 0 7.971-.985 11.374-2.866l5.4 5.4v-9.686C63.554 37.834 65 34.15 65 30.273c0-9.84-9.404-17.837-20.971-17.837zM23.454 33.945h-4.952v-.013L9.43 41.187v-7.255H7.344a5.253 5.253 0 0 1-5.246-5.246V7.727a5.253 5.253 0 0 1 5.246-5.246h29.353a5.253 5.253 0 0 1 5.246 5.246v20.971a5.253 5.253 0 0 1-5.246 5.247H23.454zm35.532 5.873l-.281.307v5.425l-2.969-2.968-.703.422c-3.238 1.945-7.05 2.981-11.017 2.981-7.754 0-14.728-4.03-17.543-9.954h10.211a7.322 7.322 0 0 0 6.615-4.197h14.344v-2.099H43.952c.051-.345.09-.69.09-1.049V23.44h13.626v-2.1h-13.64v-6.82c10.403 0 18.874 7.05 18.874 15.726 0 3.493-1.357 6.794-3.916 9.57z" fill="#E30613"/></svg>
